/* XPM */
static char const *dlsp_xpm[] = {
/* columns rows colors chars-per-pixel */
"128 128 224 2 ",
"   c None",
".  c #000000",
"X  c #010101",
"o  c #020202",
"O  c #030303",
"+  c #040404",
"@  c #050505",
"#  c #060606",
"$  c #070707",
"%  c #080808",
"&  c #090909",
"*  c #0A0A0A",
"=  c #0B0B0B",
"-  c #0C0C0C",
";  c #0D0D0D",
":  c #0E0E0E",
">  c #0F0F0F",
",  c #101010",
"<  c #111111",
"1  c #121212",
"2  c #131313",
"3  c #141414",
"4  c #151515",
"5  c #161616",
"6  c #171717",
"7  c #181818",
"8  c #191919",
"9  c #1A1A1A",
"0  c #1B1B1B",
"q  c #1C1C1C",
"w  c #1D1D1D",
"e  c #1E1E1E",
"r  c #1F1F1F",
"t  c #202020",
"y  c #212121",
"u  c #222222",
"i  c #232323",
"p  c #242424",
"a  c #252525",
"s  c #262626",
"d  c #272727",
"f  c #282828",
"g  c #292929",
"h  c #2C2C2C",
"j  c #2D2D2D",
"k  c #2E2E2E",
"l  c #2F2F2F",
"z  c #303030",
"x  c #313131",
"c  c #323232",
"v  c #333333",
"b  c #343434",
"n  c #353535",
"m  c #363636",
"M  c #373737",
"N  c #393939",
"B  c #3B3B3B",
"V  c #3C3C3C",
"C  c #3D3D3D",
"Z  c #3E3E3E",
"A  c #3F3F3F",
"S  c #404040",
"D  c #414141",
"F  c #424242",
"G  c #434343",
"H  c #444444",
"J  c #454545",
"K  c #464646",
"L  c #484848",
"P  c #494949",
"I  c #4A4A4A",
"U  c #4B4B4B",
"Y  c #4C4C4C",
"T  c #4D4D4D",
"R  c #4E4E4E",
"E  c #4F4F4F",
"W  c #505050",
"Q  c #515151",
"!  c #525252",
"~  c #535353",
"^  c #545454",
"/  c #575757",
"(  c #585858",
")  c #595959",
"_  c #5E5E5E",
"`  c #606060",
"'  c #616161",
"]  c #626262",
"[  c #636363",
"{  c #656565",
"}  c #676767",
"|  c #686868",
" . c #696969",
".. c #6A6A6A",
"X. c #6B6B6B",
"o. c #6C6C6C",
"O. c #6D6D6D",
"+. c #6E6E6E",
"@. c #6F6F6F",
"#. c #707070",
"$. c #717171",
"%. c #727272",
"&. c #737373",
"*. c #747474",
"=. c #757575",
"-. c #767676",
";. c #777777",
":. c #787878",
">. c #797979",
",. c #7A7A7A",
"<. c #7B7B7B",
"1. c #7C7C7C",
"2. c #7D7D7D",
"3. c #7E7E7E",
"4. c #7F7F7F",
"5. c #808080",
"6. c #818181",
"7. c #828282",
"8. c #838383",
"9. c #858585",
"0. c #878787",
"q. c #888888",
"w. c #8C8C8C",
"e. c #8E8E8E",
"r. c #8F8F8F",
"t. c #909090",
"y. c #919191",
"u. c #929292",
"i. c #939393",
"p. c #949494",
"a. c #959595",
"s. c #969696",
"d. c #989898",
"f. c #999999",
"g. c #9A9A9A",
"h. c #9B9B9B",
"j. c #9C9C9C",
"k. c #9D9D9D",
"l. c #9E9E9E",
"z. c #9F9F9F",
"x. c #A0A0A0",
"c. c #A1A1A1",
"v. c #A2A2A2",
"b. c #A3A3A3",
"n. c #A4A4A4",
"m. c #A5A5A5",
"M. c #A6A6A6",
"N. c #A7A7A7",
"B. c #A8A8A8",
"V. c #A9A9A9",
"C. c #ABABAB",
"Z. c #ACACAC",
"A. c #ADADAD",
"S. c #AEAEAE",
"D. c #B8B8B8",
"F. c #B9B9B9",
"G. c #BABABA",
"H. c #BBBBBB",
"J. c #BCBCBC",
"K. c #BDBDBD",
"L. c #BEBEBE",
"P. c #BFBFBF",
"I. c #C0C0C0",
"U. c #C1C1C1",
"Y. c #C2C2C2",
"T. c #C3C3C3",
"R. c #C4C4C4",
"E. c #C5C5C5",
"W. c #C6C6C6",
"Q. c #C7C7C7",
"!. c #C9C9C9",
"~. c #CACACA",
"^. c #CBCBCB",
"/. c #CCCCCC",
"(. c #CDCDCD",
"). c #CECECE",
"_. c #CFCFCF",
"`. c #D0D0D0",
"'. c #D1D1D1",
"]. c #D2D2D2",
"[. c #D3D3D3",
"{. c #D4D4D4",
"}. c #D5D5D5",
"|. c #D6D6D6",
" X c #D7D7D7",
".X c #D8D8D8",
"XX c #D9D9D9",
"oX c #DADADA",
"OX c #DBDBDB",
"+X c #DCDCDC",
"@X c #DDDDDD",
"#X c #DEDEDE",
"$X c #DFDFDF",
"%X c #E0E0E0",
"&X c #E1E1E1",
"*X c #E2E2E2",
"=X c #E3E3E3",
"-X c #E4E4E4",
";X c #E5E5E5",
":X c #E6E6E6",
">X c #E7E7E7",
",X c #E9E9E9",
"<X c #EAEAEA",
"1X c #EBEBEB",
"2X c #ECECEC",
"3X c #EDEDED",
"4X c #EEEEEE",
"5X c #EFEFEF",
"6X c #F0F0F0",
"7X c #F1F1F1",
"8X c #F2F2F2",
"9X c #F3F3F3",
"0X c #F4F4F4",
"qX c #F5F5F5",
"wX c #F6F6F6",
"eX c #F7F7F7",
"rX c #F8F8F8",
"tX c #F9F9F9",
"yX c #FAFAFA",
"uX c #FBFBFB",
"iX c #FCFCFC",
"pX c #FDFDFD",
"aX c #FEFEFE",
"sX c white",
/* pixels */
"                                                                                                                sXsXsXsXsXsX3.o o 3.sXsXsXsXsXsX                                                                                                                ",
"                                                                                                    sXsXsXsXsXsXsXsXsXsXsXsX3.o o 3.sXsXsXsXsXsXsXsXsXsXsXsX                                                                                                    ",
"                                                                                            sXsXsXsXsXsXsXsXsXsXsXsXsXsXsXsX3.o o 7.sXsXsXsXsXsXsXsXsXsXsXsXsXsXsXsX                                                                                            ",
"                                                                                      sXsXsXsXsXsXsXsXsXsXsXsXsXsXsXsXsXsXsX3.o o 3.sXsXsXsXsXsXsXsXsXsXsXsXsXsXsXsXsXsXsX                                                                                      ",
"                                                                                sXsXsXsXsXsXsXsXsXsXsXsXsXsXsXsXsXsXsXsXsXsX3.o o 3.sXsXsXsXsXsXsXsXsXsXsXsXsXsXsXsXsXsXsXsXsXsX                                                                                ",
"                                                                            sXsXsXsXsXsXsXsXsXsXsXsXsXsXsXsXsXsXsXsXsXsXsXsX7.o o 3.sXsXsXsXsXsXsXsXsXsXsXsXsXsXsXsXsXsXsXsXsXsXsXsX                                                                            ",
"                                                                        sXsXsXsXsXsXsXsXsXsXsXsXsXsXsXsXsXsXsXsXsXsXsXsXsXsX3.o o 3.sXsXsXsXsXsXsXsXsXsXsXsXsXsXsXsXsXsXsXsXsXsXsXsXsXsX                                                                        ",
"                                                                    sXsXsXsXsXsXsXsXsXsXsXsXsXsXsXsXsXsXsXsXsXsXsXsXeX5X<X<X&.o o &.<X<X5XeXsXsXsXsXsXsXsXsXsXsXsXsXsXsXsXsXsXsXsXsXsXsXsXsX                                                                    ",
"                                                                sXsXsXsXsXsXsXsXsXsXsXsXsXsXsXsXsXsXsXsX9X#XI.k.7. .! S v f 1 o o 1 f n S !  .7.k.I.#X9XsXsXsXsXsXsXsXsXsXsXsXsXsXsXsXsXsXsXsXsX                                                                ",
"                                                            sXsXsXsXsXsXsXsXsXsXsXsXsXsXsXsXsXsX9X[.b.+.H i 1 # o o o o o o o o o o o o o o o o # 1 i H +.k._.9XsXsXsXsXsXsXsXsXsXsXsXsXsXsXsXsXsXsX                                                            ",
"                                                          sXsXsXsXsXsXsXsXsXsXsXsXsXsXsXsX5XJ.3.S 7 # o o o o o o o & > 1 7 > o o > 7 1 > & o o o o o o o # 6 S 3.J.5XsXsXsXsXsXsXsXsXsXsXsXsXsXsXsXsX                                                          ",
"                                                      sXsXsXsXsXsXsXsXsXsXsXsXsXsXsXeX^.7.Z > o o o o o & 7 n ) ;.u.V.J.^.OX+.o o +.OX^.H.V.u.;.) n 7 & o o o o o 1 Z 7._.eXsXsXsXsXsXsXsXsXsXsXsXsXsXsXsX                                                      ",
"                                                    sXsXsXsXsXsXsXsXsXsXsXsXsXsX5XZ./ 7 o o o o # e Y 3.Z.|.5XeXsXsXsXsXsXsX3.o o 3.sXsXsXsXsXsXeX5X|.Z.3.Y e # o o o o 7 ) Z.5XsXsXsXsXsXsXsXsXsXsXsXsXsXsX                                                    ",
"                                                  sXsXsXsXsXsXsXsXsXsXsXsXsX<Xk.S & o o o # a ] b.OXeXsXsXsXsXsXsXsXsXsXsXsX3.o o 3.sXsXsXsXsXsXsXsXsXsXsXeXOXb.] a # o o o & S k.<XsXsXsXsXsXsXsXsXsXsXsXsXsX                                                  ",
"                                              sXsXsXsXsXsXsXsXsXsXsXsXsX5Xb.Z & o o o 6 ! k.#XyXsXsXsXsXsXsXsXsXsXsXsXsXsXsX3.o o 3.sXsXsXsXsXsXsXsXsXsXsXsXsXsXyX#Xk.! 6 o o o & Z b.5XsXsXsXsXsXsXsXsXsXsXsXsXsX                                              ",
"                                            sXsXsXsXsXsXsXsXsXsXsXsXyXH.Y & o o o i &.R.eXsXsXsXsXsXsXsXsXsXsXsXsXsXsXsXsXsX3.o o 3.sXsXsXsXsXsXsXsXsXsXsXsXsXsXsXsXsXeXR.&.a o o o & L H.eXsXsXsXsXsXsXsXsXsXsXsXsX                                            ",
"                                          sXsXsXsXsXsXsXsXsXsXsXsXOX+.1 o o o a 3.|.yXsXsXsXsXsXsXsXsXsXsXsXsXsXsXsXsXsXsXsX3.o o 7.sXsXsXsXsXsXsXsXsXsXsXsXsXsXsXsXsXsXsXyXOX7.a o o o 1 +.OXsXsXsXsXsXsXsXsXsXsXsXsX                                          ",
"                                        sXsXsXsXsXsXsXsXsXsXsXeXM.h o o o 7 ;.|.sXsXsXsXsXsXsXsXsXsXsXsXsXsXsXsXsXsXsXsXsXsX3.o o 3.sXsXsXsXsXsXsXsXsXsXsXsXsXsXsXsXsXsXsXsXsXsX|.;.e o o o v M.eXsXsXsXsXsXsXsXsXsXsXsX                                        ",
"                                      sXsXsXsXsXsXsXsXsXsXsX&X&.> o o > ) R.yXsXsXsXsXsXsXsXsXsXsXsXsXsXsXsXsXsXsXsXsXsXsXsX3.o o 7.sXsXsXsXsXsXsXsXsXsXsXsXsXsXsXsXsXsXsXsXsXsXsXyXR.) & o o > +.&XsXsXsXsXsXsXsXsXsXsXsX                                      ",
"                                    sXsXsXsXsXsXsXsXsXsXsXR.S o o o h b.9XsXsXsXsXsXsXsXsXsXsXsXsXsXsXsXsXsXsXsXsXsXsXsXsXsX3.o o 3.sXsXsXsXsXsXsXsXsXsXsXsXsXsXsXsXsXsXsXsXsXsXsXsXsX9Xb.h o o o S R.sXsXsXsXsXsXsXsXsXsXsX                                    ",
"                                  sXsXsXsXsXsXsXsXsXsXyXb.i o o & ] |.sXsXsXsXsXsXsXsXsXsXsXsXsXsXsXsXsXsXsXsXsXsXsXsXsXsXsX3.o o 3.sXsXsXsXsXsXsXsXsXsXsXsXsXsXsXsXsXsXsXsXsXsXsXsXsXsXsX|.] & o o i b.yXsXsXsXsXsXsXsXsXsXsX                                  ",
"                                sXsXsXsXsXsXsXsXsXsX9Xq.1 o o e u.9XsXsXsXsXsXsXsXsXsXsXsXsXsXsXsXsXsXsXsXsXsXsXsXsXsXsXsXsX7.o o 3.sXsXsXsXsXsXsXsXsXsXsXsXsXsXsXsXsXsXsXsXsXsXsXsXsXsXsXsX9Xs.e o o 1 0.9XsXsXsXsXsXsXsXsXsXsX                                ",
"                              sXsXsXsXsXsXsXsXsXsX5X&.& o o v H.sXsXsXsXsXsXsXsXsXsXsXsXsXsXsXsXsXsXsXsXsXsXsXsXsXsXsXsXsXsX3.o o 3.sXsXsXsXsXsXsXsXsXsXsXsXsXsXsXsXsXsXsXsXsXsXsXsXsXsXsXsXsXsXJ.n o o & &.5XsXsXsXsXsXsXsXsXsXsX                              ",
"                            sXsXsXsXsXsXsXsXsXsX<X .# o o 1 J.sXsXsXsXsXsXsXsXsXsXsXsXsXsXsXsXsXsXsXsXsXsXsXsXsXsXsXsXsXsXsX7.o o 3.sXsXsXsXsXsXsXsXsXsXsXsXsXsXsXsXsXsXsXsXsXsXsXsXsXsXsXsXsXsXsXJ.1 o o #  .<XsXsXsXsXsXsXsXsXsXsX                            ",
"                            sXsXsXsXsXsXsXsXsX<X] # o o o 6 |.sXsXsXsXsXsXsXsXsXsXsXsXsXsXsXsXsXsXsXsXsXsXsXsXsXsXsXsXsXsXsX3.o o 3.sXsXsXsXsXsXsXsXsXsXsXsXsXsXsXsXsXsXsXsXsXsXsXsXsXsXsXsXsXsXsX|.6 o o o o ] <XsXsXsXsXsXsXsXsXsX                            ",
"                          sXsXsXsXsXsXsXsXsX5X .# o o o o & Z.sXsXsXsXsXsXsXsXsXsXsXsXsXsXsXsXsXsXsXsXsXsXsXsXsXsXsXsXsXsXsX3.o o 3.sXsXsXsXsXsXsXsXsXsXsXsXsXsXsXsXsXsXsXsXsXsXsXsXsXsXsXsXsXsXsXV.& o o o o o } 5XsXsXsXsXsXsXsXsXsX                          ",
"                        sXsXsXsXsXsXsXsXsX9X&.# o o o o o o } yXsXsXsXsXsXsXsXsXsXsXsXsXsXsXsXsXsXsXsXsXsXsXsXsXsXsXsXsXsXsX3.o o 3.sXsXsXsXsXsXsXsXsXsXsXsXsXsXsXsXsXsXsXsXsXsXsXsXsXsXsXsXsXsXyX} o o o o o o # &.9XsXsXsXsXsXsXsXsXsX                        ",
"                      sXsXsXsXsXsXsXsXsXyX0.& o o o o o o o e [.sXsXsXsXsXsXsXsXsXsXsXsXsXsXsXsXsXsXsXsXsXsXsXsXsXsXsXsXsXsX3.o o 3.sXsXsXsXsXsXsXsXsXsXsXsXsXsXsXsXsXsXsXsXsXsXsXsXsXsXsXsXsXsX[.e o o o o o o o & 0.yXsXsXsXsXsXsXsXsXsX                      ",
"                      sXsXsXsXsXsXsXsXsXb.1 o o o o o o o o o 3.sXsXsXsXsXsXsXsXsXsXsXsXsXsXsXsXsXsXsXsXsXsXsXsXsXsXsXsXsXsX3.o o 3.sXsXsXsXsXsXsXsXsXsXsXsXsXsXsXsXsXsXsXsXsXsXsXsXsXsXsXsXsXsX3.o o o o o o o o o 1 b.sXsXsXsXsXsXsXsXsX                      ",
"                    sXsXsXsXsXsXsXsXsXR.i o o 1 6 & o o o o o a |.sXsXsXsXsXsXsXsXsXsXsXsXsXsXsXsXsXsXsXsXsXsXsXsXsXsXsXsXsX7.o o 3.sXsXsXsXsXsXsXsXsXsXsXsXsXsXsXsXsXsXsXsXsXsXsXsXsXsXsXsXsX|.a o o o o o 1 v a o o i R.sXsXsXsXsXsXsXsXsX                    ",
"                  sXsXsXsXsXsXsXsXsX&XS o o n J.|.Z.} i o o o o ] 5XsXsXsXsXsXsXsXsXsXsXsXsXsXsXsXsXsXsXsXsXsXsXsXsX9XOXH.b.L o o L b.H.OX9XsXsXsXsXsXsXsXsXsXsXsXsXsXsXsXsXsXsXsXsXsXsXsXsX5X] o o o o a ;.I.5X_.n o o S &XsXsXsXsXsXsXsXsXsX                  ",
"                  sXsXsXsXsXsXsXsXeX+.o o e J.sXsXsXyX|.7.a o o #  .5XsXsXsXsXsXsXsXsXsXsXsXsXsXsXsXsXsXsXsXsX5XI.<.H e > # o o o o # > e H <.H.5XsXsXsXsXsXsXsXsXsXsXsXsXsXsXsXsXsXsXsXsX5X+.# o o i 3.|.sXsXsXsXJ.e o o +.eXsXsXsXsXsXsXsXsX                  ",
"                sXsXsXsXsXsXsXsXsXM.> o & s.sXsXsXsXsXsXsX|.] # o #  .5XsXsXsXsXsXsXsXsXsXsXsXsXsXsXsXsXsX:Xg.S 1 o o o o o o o o o o o o o o > S g.:XsXsXsXsXsXsXsXsXsXsXsXsXsXsXsXsXsX5X .# o # ] [.sXsXsXsXsXsXsXu.& o > M.sXsXsXsXsXsXsXsXsX                ",
"                sXsXsXsXsXsXsXsXOXh o o ] 9XsXsXsXsXsXsXsXsX5X+.# o #  .5XsXsXsXsXsXsXsXsXsXsXsXsXsXsX9XM.B # o o o o o o o o o o o o o o o o o o # B b.9XsXsXsXsXsXsXsXsXsXsXsXsXsXsX5X+.# o #  .5XsXsXsXsXsXsXsXsX9X] o o v OXsXsXsXsXsXsXsXsX                ",
"              sXsXsXsXsXsXsXsXyX+.o o h |.sXsXsXsXsXsXsXsXsXsX5X+.# o #  .5XsXsXsXsXsXsXsXsXsXsXsXsXOX] & o o o o o o o o o o o o o o o o o o o o o o & ] |.sXsXsXsXsXsXsXsXsXsXsXsX5X+.# o #  .5XsXsXsXsXsXsXsXsXsXsX|.h o o &.yXsXsXsXsXsXsXsXsX              ",
"              sXsXsXsXsXsXsXsXH.1 o & b.sXsXsXsXsXsXsXsXsXsXsXsX5X .# o #  .5XsXsXsXsXsXsXsXsXsXsXJ.v o o o o o o o o o o o o o o o o o o o o o o o o o o v H.sXsXsXsXsXsXsXsXsXsX5X+.# o #  .5XsXsXsXsXsXsXsXsXsXsXsXsXk.& o 6 H.sXsXsXsXsXsXsXsX              ",
"            sXsXsXsXsXsXsXsX5XL o o ) 9XsXsXsXsXsXsXsXsXsXsXsXsXsX5X+.# o #  .5XsXsXsXsXsXsXsXsXV.i o o o o o o o o o o o o o o o o o o o o o o o o o o o o e V.sXsXsXsXsXsXsXsX5X+.# o #  .5XsXsXsXsXsXsXsXsXsXsXsXsXsX9X) o o Y 5XsXsXsXsXsXsXsXsX            ",
"            sXsXsXsXsXsXsXsXb.& o e R.sXsXsXsXsXsXsXsXsXsXsXsXsXsXsX5X .# o #  .5XsXsXsXsXsXsXV.7 o o o o o o o o o o o o o o o o o o o o o o o o o o o o o o 7 Z.sXsXsXsXsXsX5X+.# o #  .5XsXsXsXsXsXsXsXsXsXsXsXsXsXsXsXR.7 o & b.sXsXsXsXsXsXsXsX            ",
"          sXsXsXsXsXsXsXsX<XZ o o ;.sXsXsXsXsXsXsXsXsXsXsXsXsXsXsXsXsX5X+.# o #  .5XsXsXsXsXI.i o o o o o o o o o o o o o & 6 7 7 6 & o o o o o o o o o o o o o i I.sXsXsXsX5X+.# o #  .5XsXsXsXsXsXsXsXsXsXsXsXsXsXsXsXsXyX;.o o Z <XsXsXsXsXsXsXsXsX          ",
"          sXsXsXsXsXsXsXsXk.# o a |.sXsXsXsXsXsXsXsXsXsXsXsXsXsXsXsXsXsX5X+.# o #  .5XsXsX&XZ o o o o o o o o o o o & B <.Z._.#X#X_.Z.<.n & o o o o o o o o o o o Z #XsXsX5X+.# o #  .5XsXsXsXsXsXsXsXsXsXsXsXsXsXsXsXsXsXsX|.a o # k.sXsXsXsXsXsXsXsX          ",
"        sXsXsXsXsXsXsXsX5XS o o 3.sXsXsXsXsXsXsXsXsXsXsXsXsXsXsXsXsXsXsXsX5X+.# o #  .5XyX&.o o o o o o o o o o # Z M.<XsXsXsXsXsXsXsXsX<XM.Z # o o o o o o o o o o &.yX5X+.# o #  .5XsXsXsXsXsXsXsXsXsXsXsXsXsXsXsXsXsXsXsXsX3.o o S 5XsXsXsXsXsXsXsXsX        ",
"        sXsXsXsXsXsXsXsXZ.& o a |.sXsXsXsXsXsXsXsXsXsXsXsXsXsXsXsXsXsXsXsXsX5X+.# o # +.V.6 o o o o o o o o o > <.:XsXsXsXsXsXsXsXsXsXsXsXsX:X<.> o o o o o o o o o 6 Z.+.# o #  .5XsXsXsXsXsXsXsXsXsXsXsXsXsXsXsXsXsXsXsXsXsX|.i o & Z.sXsXsXsXsXsXsXsX        ",
"        sXsXsXsXsXsXsXeX/ o o &.sXsXsXsXsXsXsXsXsXsXsXsXsXsXsXsXsXsXsXsXsXsXsX5X+.# o & 6 o o o o o o o o o 6 g.eXsXsXsXsXsXsXsXsXsXsXsXsXsXsXyXs.6 o o o o o o o o o 7 & o #  .5XsXsXsXsXsXsXsXsXsXsXsXsXsXsXsXsXsXsXsXsXsXsXsX&.o o ) eXsXsXsXsXsXsXsX        ",
"      sXsXsXsXsXsXsXsX^.7 o 6 R.sXsXsXsXsXsXsXsXsXsXsXsXsXsXsXsXsXsXsXsXsXsXsXsX5X+.# o o o o o o o o o o > s.sXsXsXsXsXsXsXsXsXsXsXsXsXsXsXsXsXyXs.> o o o o o o o o o o #  .5XsXsXsXsXsXsXsXsXsXsXsXsXsXsXsXsXsXsXsXsXsXsXsXsXR.6 o 7 ^.sXsXsXsXsXsXsXsX      ",
"      sXsXsXsXsXsXsXsX7.o o ! eXsXsXsXsXsXsXsXsXsXsXsXsXsXsXsXsXsXsXsXsXsXsXsXsXsX5X+.# o o o o o o o o o ;.eXsXsXsXsXsXsXsXsXsXsXsXsXsXsXsXsXsXsXeX&.o o o o o o o o o #  .5XsXsXsXsXsXsXsXsXsXsXsXsXsXsXsXsXsXsXsXsXsXsXsXsXsXeX! o o 7.sXsXsXsXsXsXsXsX      ",
"      sXsXsXsXsXsXsX5XZ o # k.sXsXsXsXsXsXsXsXsXsXsXsXsXsXsXsXsXsXsXsXsXsXsXsXsXsXsX#Xa o o o o o o o o n &XsXsXsXsXsXsXsXsXsXsXsXsXsXsXsXsXsXsXsXsX#Xn o o o o o o o o a #XsXsXsXsXsXsXsXsXsXsXsXsXsXsXsXsXsXsXsXsXsXsXsXsXsXsXsXk.# o Z 5XsXsXsXsXsXsXsX      ",
"    sXsXsXsXsXsXsXsXJ.> o a #XsXsXsXsXsXsXsXsXsXsXsXsXsXsXsXsXsXsXsXsXsXsXsXsXsXsXsX_.6 o o o o o o o # k.sXsXsXsXsXsXsXsXsXsXsXsXsXsXsXsXsXsXsXsXsXsXg.# o o o o o o o 6 [.sXsXsXsXsXsXsXsXsXsXsXsXsXsXsXsXsXsXsXsXsXsXsXsXsXsXsX#Xa o 1 J.sXsXsXsXsXsXsXsX    ",
"    sXsXsXsXsXsXsXsX3.o o ] yXsXsXsXsXsXsXsXsXsXsXsXsXsXsXsXsXsXsXsXsXsXsXsXsXsXsXsXV.& o o o o o o o v :XsXsXsXsXsXsXsXsXsXsXsXsXsXsXsXsXsXsXsXsXsXsX:Xv o o o o o o o & V.sXsXsXsXsXsXsXsXsXsXsXsXsXsXsXsXsXsXsXsXsXsXsXsXsXsXsXyX] o o 7.sXsXsXsXsXsXsXsX    ",
"    sXsXsXsXsXsXsX9XS o # M.sXsXsXsXsXsXsXsXsXsXsXsXsXsXsXsXsXsXsXsXsXsXsXsXsXsXsXsXu.o o o o o o o o ;.sXsXsXsXsXsXsXsXsXsXsXsXsXsXsXsXsXsXsXsXsXsXsXsX&.o o o o o o o o u.sXsXsXsXsXsXsXsXsXsXsXsXsXsXsXsXsXsXsXsXsXsXsXsXsXsXsXsXb.# o H 9XsXsXsXsXsXsXsX    ",
"    sXsXsXsXsXsXsX[.6 o e OXsXsXsXsXsXsXsXsXsXsXsXsXsXsXsXsXsXsXsXsXsXsXsXsXsXsXsXsX0.o o o o o o o & V.sXsXsXsXsXsXsXsXsXsXsXsXsXsXsXsXsXsXsXsXsXsXsXsXM.# o o o o o o o 0.sXsXsXsXsXsXsXsXsXsXsXsXsXsXsXsXsXsXsXsXsXsXsXsXsXsXsXsXOXe o 7 [.sXsXsXsXsXsXsX    ",
"  sXsXsXsXsXsXsXsXk.# o Y 9XsXsXsXsXsXsXsXsXsXsXsXsXsXsXsXsXsXsXsXsXsXsXsXsXsXsXsXsX3.o o o o o o o 6 _.sXsXsXsXsXsXsXsXsXsXsXsXsXsXsXsXsXsXsXsXsXsXsXsX^.1 o o o o o o o 7.sXsXsXsXsXsXsXsXsXsXsXsXsXsXsXsXsXsXsXsXsXsXsXsXsXsXsXsX9XY o # b.sXsXsXsXsXsXsXsX  ",
"  sXsXsXsXsXsXsXsX+.o o 3.sXsXsXsXsXsXsXsXsXsXsXsXsXsXsXsXsXsXsXsXsXsXsXsXsXsXsXsXsX3.o o o o o o o 7 #XsXsXsXsXsXsXsXsXsXsXsXsXsXsXsXsXsXsXsXsXsXsXsXsX#X7 o o o o o o o 3.sXsXsXsXsXsXsXsXsXsXsXsXsXsXsXsXsXsXsXsXsXsXsXsXsXsXsXsXsX3.o o &.sXsXsXsXsXsXsXsX  ",
"  sXsXsXsXsXsXsX9XH o & Z.sXsXsXsXsXsXsXsXsXsXsXsXsXsXsXsXsXsXsXsXsXsXsXsXsXsXsXsXsX<.o o o o o o o e &XsXsXsXsXsXsXsXsXsXsXsXsXsXsXsXsXsXsXsXsXsXsXsXsX&Xe o o o o o o o 3.sXsXsXsXsXsXsXsXsXsXsXsXsXsXsXsXsXsXsXsXsXsXsXsXsXsXsXsXsXZ.& o H 9XsXsXsXsXsXsXsX  ",
"  sXsXsXsXsXsXsX#Xi o 7 |.sXsXsXsXsXsXsXsXsXsXsXsXsXsXsXsXsXsXsXsXsXsXsXsXsXsXsXsXsX<.o o o o o o o e :XsXsXsXsXsXsXsXsXsXsXsXsXsXsXsXsXsXsXsXsXsXsXsXsX&Xe o o o o o o o 3.sXsXsXsXsXsXsXsXsXsXsXsXsXsXsXsXsXsXsXsXsXsXsXsXsXsXsXsXsX|.7 o i #XsXsXsXsXsXsXsX  ",
"  sXsXsXsXsXsXsXI.1 o n 5XsXsXsXsXsXsXsXsXsXsXsXsXsXsXsXsXsXsXsXsXsXsXsXsXsXsXsXsXsX<.o o o o o o o i :XsXsXsXsXsXsXsXsXsXsXsXsXsXsXsXsXsXsXsXsXsXsXsXsX&Xe o o o o o o o 3.sXsXsXsXsXsXsXsXsXsXsXsXsXsXsXsXsXsXsXsXsXsXsXsXsXsXsXsXsX5Xn o 1 I.sXsXsXsXsXsXsX  ",
"  sXsXsXsXsXsXsXk.# o ) eXsXsXsXsXsXsXsXsXsXsXsXsXsXsXsXsXsXsXsXsXsXsXsXsXsXsXsXsXsX<.o o o o o o o i :XsXsXsXsXsXsXsXsXsXsXsXsXsXsXsXsXsXsXsXsXsXsXsXsX&Xe o o o o o o o 7.sXsXsXsXsXsXsXsXsXsXsXsXsXsXsXsXsXsXsXsXsXsXsXsXsXsXsXsXsXeX) o # b.sXsXsXsXsXsXsX  ",
"sXsXsXsXsXsXsXsX7.o o ;.sXsXsXsXsXsXsXsXsXsXsXsXsXsXsXsXsXsXsXsXsXsXsXsXsXsXsXeXJ.w.B o o o o o o o 1 &.7.3.3.3.3.7.3.3.3.3.3.3.3.3.3.3.3.3.3.3.3.3.3.7.&.> o o o o o o o Z w.J.eXsXsXsXsXsXsXsXsXsXsXsXsXsXsXsXsXsXsXsXsXsXsXsXsXsXsXsX;.o o 7.sXsXsXsXsXsXsXsX",
"sXsXsXsXsXsXsXsX .o o u.sXsXsXsXsXsXsXsXsXsXsXsXsXsXsXsXsXsXsXsXsXsXsXsXsXsX5X&.1 o o o o o o o o o o o o o o o o o o o o o o o o o o o o o o o o o o o o o o o o o o o o o o 1 &.5XsXsXsXsXsXsXsXsXsXsXsXsXsXsXsXsXsXsXsXsXsXsXsXsXsXsXu.o o  .sXsXsXsXsXsXsXsX",
"sXsXsXsXsXsXsXeX! o & V.sXsXsXsXsXsXsXsXsXsXsXsXsXsXsXsXsXsXsXsXsXsXsXsXsXsXw.# o o o o o o o o o o o o o o o o o o o o o o o o o o o o o o o o o o o o o o o o o o o o o o o o # w.sXsXsXsXsXsXsXsXsXsXsXsXsXsXsXsXsXsXsXsXsXsXsXsXsXsXM.& o / eXsXsXsXsXsXsXsX",
"sXsXsXsXsXsXsX5XS o > J.sXsXsXsXsXsXsXsXsXsXsXsXsXsXsXsXsXsXsXsXsXsXsXsXsX5XZ o o o o o o o o o o o o o o o o o o o o o o o o o o o o o o o o o o o o o o o o o o o o o o o o o o Z 5XsXsXsXsXsXsXsXsXsXsXsXsXsXsXsXsXsXsXsXsXsXsXsXsXsXH.> o S 9XsXsXsXsXsXsXsX",
"sXsXsXsXsXsXsX<Xv o 6 ^.sXsXsXsXsXsXsXsXsXsXsXsXsXsXsXsXsXsXsXsXsXsXsXsXsX:Xe o o o o o o o o o o o o o o o o o o o o o o o o o o o o o o o o o o o o o o o o o o o o o o o o o o e :XsXsXsXsXsXsXsXsXsXsXsXsXsXsXsXsXsXsXsXsXsXsXsXsXsX^.1 o n <XsXsXsXsXsXsXsX",
"sXsXsXsXsXsXsX:Xa o 7 OXsXsXsXsXsXsXsXsXsXsXsXsXsXsXsXsXsXsXsXsXsXsXsXsXsX&Xe o o o o o o o o o o o o o o o o o o o o o o o o o o o o o o o o o o o o o o o o o o o o o o o o o o e &XsXsXsXsXsXsXsXsXsXsXsXsXsXsXsXsXsXsXsXsXsXsXsXsXsX|.7 o f :XsXsXsXsXsXsXsX",
"3.7.3.3.3.3.7.&.1 o > +.7.3.3.3.3.3.7.3.3.7.3.3.3.3.3.3.3.3.7.3.3.3.3.3.7.&.> o o o o o o o o o o o o o o o o o o o o o o o o o o o o o o o o o o o o o o o o o o o o o o o o o o > &.7.3.7.3.3.3.3.3.3.3.3.7.3.3.7.3.3.3.3.3.7.3.3.3.7.+.> o 1 &.7.3.3.3.3.7.3.",
"o o o o o o o o o o o o o o o o o o o o o o o o o o o o o o o o o o o o o o o o o o o o o o o o o o o o o o o o o o o o o o o o o o o o o o o o o o o o o o o o o o o o o o o o o o o o o o o o o o o o o o o o o o o o o o o o o o o o o o o o o o o o o o o o ",
"o o o o o o o o o o o o o o o o o o o o o o o o o o o o o o o o o o o o o o o o o o o o o o o o o o o o o o o o o o o o o o o o o o o o o o o o o o o o o o o o o o o o o o o o o o o o o o o o o o o o o o o o o o o o o o o o o o o o o o o o o o o o o o o o ",
"3.3.3.3.3.7.7.&.1 o > +.7.3.3.3.3.3.3.3.7.3.3.3.3.3.7.3.3.7.3.3.7.3.3.3.7.&.> o o o o o o o o o o o o o o o o o o o o o o o o o o o o o o o o o o o o o o o o o o o o o o o o o o > &.7.3.3.7.7.3.7.3.3.3.3.7.3.3.7.3.3.7.3.3.3.3.3.7.7.+.> o 1 &.7.3.3.3.3.7.3.",
"sXsXsXsXsXsXsX:Xf o 7 OXsXsXsXsXsXsXsXsXsXsXsXsXsXsXsXsXsXsXsXsXsXsXsXsXsX&Xe o o o o o o o o o o o o o o o o o o o o o o o o o o o o o o o o o o o o o o o o o o o o o o o o o o 7 &XsXsXsXsXsXsXsXsXsXsXsXsXsXsXsXsXsXsXsXsXsXsXsXsXsX|.6 o f :XsXsXsXsXsXsXsX",
"sXsXsXsXsXsXsX<Xv o 1 ^.sXsXsXsXsXsXsXsXsXsXsXsXsXsXsXsXsXsXsXsXsXsXsXsXsX&X7 o o o o o o o o o o o o o o o o o o o o o o o o o o o o o o o o o o o o o o o o o o o o o o o o o o 7 &XsXsXsXsXsXsXsXsXsXsXsXsXsXsXsXsXsXsXsXsXsXsXsXsXsX^.1 o n <XsXsXsXsXsXsXsX",
"sXsXsXsXsXsXsX5XS o > J.sXsXsXsXsXsXsXsXsXsXsXsXsXsXsXsXsXsXsXsXsXsXsXsXsX&Xe o o o o o o o o o o o o o o o o o o o o o o 7 ! ;.;.Y 6 o o o o o o o o o o o o o o o o o o o o o o e &XsXsXsXsXsXsXsXsXsXsXsXsXsXsXsXsXsXsXsXsXsXsXsXsXsXH.> o S 9XsXsXsXsXsXsXsX",
"sXsXsXsXsXsXsXeX! o & V.sXsXsXsXsXsXsXsXsXsXsXsXsXsXsXsXsXsXsXsXsXsXsXsXsX&X7 o o o o o o o o o o o o o o o o o o o o o L R.eXsXsXeXI.L o o o o o o o o o o o o o o o o o o o o o e &XsXsXsXsXsXsXsXsXsXsXsXsXsXsXsXsXsXsXsXsXsXsXsXsXsXM.& o / eXsXsXsXsXsXsXsX",
"sXsXsXsXsXsXsXsX .o o u.sXsXsXsXsXsXsXsXsXsXsXsXsXsXsXsXsXsXsXsXsXsXsXsXsX&Xe o o o o o o o o o o o o o o o o o o o o L :XsXsXsXsXsXsX&XL o o o o o o o o o o o o o o o o o o o o e &XsXsXsXsXsXsXsXsXsXsXsXsXsXsXsXsXsXsXsXsXsXsXsXsXsXu.o o  .sXsXsXsXsXsXsXsX",
"sXsXsXsXsXsXsXsX7.o o ;.sXsXsXsXsXsXsXsXsXsXsXsXsXsXsXsXsXsXsXsXsXsXsXsXsX&Xe o o o o o o o o o o o o o o o o o o o 6 R.sXsXsXsXsXsXsXsXI.6 o o o o o o o o o o o o o o o o o o o e &XsXsXsXsXsXsXsXsXsXsXsXsXsXsXsXsXsXsXsXsXsXsXsXsXsX;.o o 7.sXsXsXsXsXsXsXsX",
"  sXsXsXsXsXsXsXk.# o ) eXsXsXsXsXsXsXsXsXsXsXsXsXsXsXsXsXsXsXsXsXsXsXsXsX&Xe o o o o o o o o o o o o o o o o o o o Y eXsXsXsXsXsXsXsXsX9XY o o o o o o o o o o o o o o o o o o o e &XsXsXsXsXsXsXsXsXsXsXsXsXsXsXsXsXsXsXsXsXsXsXsXsXeX/ o # b.sXsXsXsXsXsXsX  ",
"  sXsXsXsXsXsXsXI.1 o n 5XsXsXsXsXsXsXsXsXsXsXsXsXsXsXsXsXsXsXsXsXsXsXsXsX&Xe o o o o o o o o o o o o o o o o o o o ;.sXsXsXsXsXsXsXsXsXsX;.o o o o o o o o o o o o o o o o o o o e &XsXsXsXsXsXsXsXsXsXsXsXsXsXsXsXsXsXsXsXsXsXsXsXsX5Xn o 1 I.sXsXsXsXsXsXsX  ",
"  sXsXsXsXsXsXsX#Xi o 7 |.sXsXsXsXsXsXsXsXsXsXsXsXsXsXsXsXsXsXsXsXsXsXsXsX&Xe o o o o o o o o o o o o o o o o o o o ;.sXsXsXsXsXsXsXsXsXsX&.o o o o o o o o o o o o o o o o o o o 7 &XsXsXsXsXsXsXsXsXsXsXsXsXsXsXsXsXsXsXsXsXsXsXsXsX|.7 o i #XsXsXsXsXsXsXsX  ",
"  sXsXsXsXsXsXsX9XH o & Z.sXsXsXsXsXsXsXsXsXsXsXsXsXsXsXsXsXsXsXsXsXsXsXsX&Xe o o o o o o o o o o o o o o o o o o o Y 9XsXsXsXsXsXsXsXsX9XY o o o o o o o o o o o o o o o o o o o e &XsXsXsXsXsXsXsXsXsXsXsXsXsXsXsXsXsXsXsXsXsXsXsXsXZ.& o H 9XsXsXsXsXsXsXsX  ",
"  sXsXsXsXsXsXsXsX+.o o 3.sXsXsXsXsXsXsXsXsXsXsXsXsXsXsXsXsXsXsXsXsXsXsXsX&X7 o o o o o o o o o o o o o o o o o o o 6 I.sXsXsXsXsXsXsXsXI.6 o o o o o o o o o o o o o o o o o o o e &XsXsXsXsXsXsXsXsXsXsXsXsXsXsXsXsXsXsXsXsXsXsXsXsX3.o o &.sXsXsXsXsXsXsXsX  ",
"  sXsXsXsXsXsXsXsXk.# o Y 9XsXsXsXsXsXsXsXsXsXsXsXsXsXsXsXsXsXsXsXsXsXsXsX&X7 o o o o o o o o o o o o o o o o o o o o L &XsXsXsXsXsXsX:XL o o o o o o o o o o o o o o o o o o o o e &XsXsXsXsXsXsXsXsXsXsXsXsXsXsXsXsXsXsXsXsXsXsXsX9XY o # b.sXsXsXsXsXsXsXsX  ",
"    sXsXsXsXsXsXsX[.7 o e OXsXsXsXsXsXsXsXsXsXsXsXsXsXsXsXsXsXsXsXsXsXsXsX&X7 o o o o o o o o o o o o o o o o o o o o # k.sXsXsXsXsXsXk.# o o o o o o o o o o o o o o o o o o o o e &XsXsXsXsXsXsXsXsXsXsXsXsXsXsXsXsXsXsXsXsXsXsXsXOXe o 7 [.sXsXsXsXsXsXsX    ",
"    sXsXsXsXsXsXsX9XS o # b.sXsXsXsXsXsXsXsXsXsXsXsXsXsXsXsXsXsXsXsXsXsXsX&X7 o o o o o o o o o o o o o o o o o o o o & Z.sXsXsXsXsXsXZ.& o o o o o o o o o o o o o o o o o o o o e &XsXsXsXsXsXsXsXsXsXsXsXsXsXsXsXsXsXsXsXsXsXsXsXb.# o H 9XsXsXsXsXsXsXsX    ",
"    sXsXsXsXsXsXsXsX3.o o ] yXsXsXsXsXsXsXsXsXsXsXsXsXsXsXsXsXsXsXsXsXsXsX&Xe o o o o o o o o o o o o o o o o o o o o 6 _.sXsXsXsXsXsX_.6 o o o o o o o o o o o o o o o o o o o o 7 &XsXsXsXsXsXsXsXsXsXsXsXsXsXsXsXsXsXsXsXsXsXsXyX] o o 7.sXsXsXsXsXsXsXsX    ",
"    sXsXsXsXsXsXsXsXJ.1 o a #XsXsXsXsXsXsXsXsXsXsXsXsXsXsXsXsXsXsXsXsXsXsX&Xe o o o o o o o o o o o o o o o o o o o o a :XsXsXsXsXsXsX:Xa o o o o o o o o o o o o o o o o o o o o 7 &XsXsXsXsXsXsXsXsXsXsXsXsXsXsXsXsXsXsXsXsXsXsX#Xa o 1 J.sXsXsXsXsXsXsXsX    ",
"      sXsXsXsXsXsXsX5XZ o # k.sXsXsXsXsXsXsXsXsXsXsXsXsXsXsXsXsXsXsXsXsXsX&Xe o o o o o o o o o o o o o o o o o o o o S 9XsXsXsXsXsXsX5XS o o o o o o o o o o o o o o o o o o o o 7 &XsXsXsXsXsXsXsXsXsXsXsXsXsXsXsXsXsXsXsXsXsXsXk.# o Z 5XsXsXsXsXsXsXsX      ",
"      sXsXsXsXsXsXsXsX7.o o ! eXsXsXsXsXsXsXsXsXsXsXsXsXsXsXsXsXsXsXsXsXsX&Xe o o o o o o o o o o o o o o o o o o o o ] yXsXsXsXsXsXsXyX] o o o o o o o o o o o o o o o o o o o o 7 &XsXsXsXsXsXsXsXsXsXsXsXsXsXsXsXsXsXsXsXsXsXeX! o o 7.sXsXsXsXsXsXsXsX      ",
"      sXsXsXsXsXsXsXsX^.7 o 6 R.sXsXsXsXsXsXsXsXsXsXsXsXsXsXsXsXsXsXsXsXsX&X7 o o o o o o o o o o o o o o o o o o o o 3.sXsXsXsXsXsXsXsX3.o o o o o o o o o o o o o o o o o o o o e &XsXsXsXsXsXsXsXsXsXsXsXsXsXsXsXsXsXsXsXsXsXR.6 o 7 _.sXsXsXsXsXsXsXsX      ",
"        sXsXsXsXsXsXsXeX) o o &.sXsXsXsXsXsXsXsXsXsXsXsXsXsXsXsXsXsXsXsXsX&X7 o o o o o o o o o o o o o o o o o o o # k.sXsXsXsXsXsXsXsXk.# o o o o o o o o o o o o o o o o o o o e &XsXsXsXsXsXsXsXsXsXsXsXsXsXsXsXsXsXsXsXsXsX&.o o ) eXsXsXsXsXsXsXsX        ",
"        sXsXsXsXsXsXsXsXZ.& o a |.sXsXsXsXsXsXsXsXsXsXsXsXsXsXsXsXsXsXsXsX&X7 o o o o o o o o o o o o o o o o o o o > J.sXsXsXsXsXsXsXsXJ.> o o o o o o o o o o o o o o o o o o o e &XsXsXsXsXsXsXsXsXsXsXsXsXsXsXsXsXsXsXsXsX|.i o & Z.sXsXsXsXsXsXsXsX        ",
"        sXsXsXsXsXsXsXsX5XS o o 3.sXsXsXsXsXsXsXsXsXsXsXsXsXsXsXsXsXsXsXsXOX7 o o o o o o o o o o o o o o o o o o o 7 OXsXsXsXsXsXsXsXsXOX7 o o o o o o o o o o o o o o o o o o o 7 OXsXsXsXsXsXsXsXsXsXsXsXsXsXsXsXsXsXsXsXsX3.o o S 5XsXsXsXsXsXsXsXsX        ",
"          sXsXsXsXsXsXsXsXk.# o a |.sXsXsXsXsXsXsXsXsXsXsXsXsXsXsXsXsXsX5X .o o o o o o o o o o o o o o o o o o o o v <XsXsXsXsXsXsXsXsX<Xv o o o o o o o o o o o o o o o o o o o #  .5XsXsXsXsXsXsXsXsXsXsXsXsXsXsXsXsXsXsX|.a o # k.sXsXsXsXsXsXsXsX          ",
"          sXsXsXsXsXsXsXsX<XZ o o ;.sXsXsXsXsXsXsXsXsXsXsXsXsXsXsXsXsX5X+.# o o o o o o o o o o o o o o o o o o o o ! eXsXsXsXsXsXsXsXsXeX! o o o o o o o o o o o o o o o o o o o o #  .5XsXsXsXsXsXsXsXsXsXsXsXsXsXsXsXsXyX;.o o Z <XsXsXsXsXsXsXsXsX          ",
"            sXsXsXsXsXsXsXsXb.& o e R.sXsXsXsXsXsXsXsXsXsXsXsXsXsXsX5X .# o o o o o o o o o o o o o o o o o o o o o ] &X&X&X&X&X&X&X&X&X&X] o o o o o o o o o o o o o o o o o o o o o #  .5XsXsXsXsXsXsXsXsXsXsXsXsXsXsXsXR.7 o & b.sXsXsXsXsXsXsXsX            ",
"            sXsXsXsXsXsXsXsX5XY o o / 9XsXsXsXsXsXsXsXsXsXsXsXsXsX5X+.# o o o o o o o o o o o o o o o o o o o o o o > e 7 7 7 e e e e e e > o o o o o o o o o o o o o o o o o o o o o o #  .5XsXsXsXsXsXsXsXsXsXsXsXsXsX9X/ o o Y 9XsXsXsXsXsXsXsXsX            ",
"              sXsXsXsXsXsXsXsXH.6 o & b.sXsXsXsXsXsXsXsXsXsXsXsX5X .# o # ! 1 o o o o o o o o o o o o o o o o o o o o o o o o o o o o o o o o o o o o o o o o o o o o o o o o o o 1 ! # o #  .5XsXsXsXsXsXsXsXsXsXsXsXsXk.& o 6 H.sXsXsXsXsXsXsXsX              ",
"              sXsXsXsXsXsXsXsXyX&.o o h |.sXsXsXsXsXsXsXsXsXsX5X .# o # +.[.e o o o o o o o o o o o o o o o o o o o o o o o o o o o o o o o o o o o o o o o o o o o o o o o o o o e [.+.# o #  .5XsXsXsXsXsXsXsXsXsXsX|.h o o &.yXsXsXsXsXsXsXsXsX              ",
"                sXsXsXsXsXsXsXsXOXv o o ] 9XsXsXsXsXsXsXsXsX5X+.# o #  .5X:X7 o o o o o o o o o o o o o o o o o o o o o o o o o o o o o o o o o o o o o o o o o o o o o o o o o o 7 :X9X+.# o #  .5XsXsXsXsXsXsXsXsX9X] o o v OXsXsXsXsXsXsXsXsX                ",
"                sXsXsXsXsXsXsXsXsXM.> o & s.sXsXsXsXsXsXsX|.] # o #  .5XsX:Xe o o o o o o o o o o o o o o o o o o o o o o o o o o o o o o o o o o o o o o o o o o o o o o o o o o e :XsX5X+.# o # ] |.sXsXsXsXsXsXsXu.& o 1 V.sXsXsXsXsXsXsXsXsX                ",
"                  sXsXsXsXsXsXsXsXyX+.o o e H.sXsXsXyX[.3.a o o #  .5XsXsX5XZ o o o o o o o o o o o o o o o o o o o o o o o o o o o o o o o o o o o o o o o o o o o o o o o o o o Z 5XsXsX5X+.# o o i 3.|.yXsXsXsXH.e o o &.yXsXsXsXsXsXsXsXsX                  ",
"                  sXsXsXsXsXsXsXsXsX&XS o o n J.|.V.} e o o o o ] 5XsXsXsXsXw.# o o o o o o o o o o o o o o o o o o o o o o o o o o o o o o o o o o o o o o o o o o o o o o o o # w.sXsXsXsX5X] o o o o e } V.|.J.n o o S &XsXsXsXsXsXsXsXsXsX                  ",
"                    sXsXsXsXsXsXsXsXsXR.i o o 1 6 & o o o o o a |.sXsXsXsXsX5X&.1 o o o o o o o o o o o o o o o o o o o o o o o o o o o o o o o o o o o o o o o o o o o o o o 1 &.5XsXsXsXsXsX|.a o o o o o & 6 1 o o i R.sXsXsXsXsXsXsXsXsX                    ",
"                      sXsXsXsXsXsXsXsXsXb.1 o o o o o o o o o 3.sXsXsXsXsXsXsXeXJ.w.3.3.3.3.3.3.3.3.3.7.3.3.3.3.3.3.3.3.3.7.S o o Z 7.3.3.3.3.3.3.3.3.3.3.3.3.3.3.3.3.7.3.3.q.J.eXsXsXsXsXsXsXsX3.o o o o o o o o o 1 M.sXsXsXsXsXsXsXsXsX                      ",
"                      sXsXsXsXsXsXsXsXsXyXq.& o o o o o o o e [.sXsXsXsXsXsXsXsXsXsXsXsXsXsXsXsXsXsXsXsXsXsXsXsXsXsXsXsXsXsX3.o o 3.sXsXsXsXsXsXsXsXsXsXsXsXsXsXsXsXsXsXsXsXsXsXsXsXsXsXsXsXsXsX[.e o o o o o o o & q.yXsXsXsXsXsXsXsXsXsX                      ",
"                        sXsXsXsXsXsXsXsXsX9X;.# o o o o o o } yXsXsXsXsXsXsXsXsXsXsXsXsXsXsXsXsXsXsXsXsXsXsXsXsXsXsXsXsXsXsX3.o o 3.sXsXsXsXsXsXsXsXsXsXsXsXsXsXsXsXsXsXsXsXsXsXsXsXsXsXsXsXsXsXyX} o o o o o o # &.9XsXsXsXsXsXsXsXsXsX                        ",
"                          sXsXsXsXsXsXsXsXsX5X .o o o o o & Z.sXsXsXsXsXsXsXsXsXsXsXsXsXsXsXsXsXsXsXsXsXsXsXsXsXsXsXsXsXsXsX3.o o 3.sXsXsXsXsXsXsXsXsXsXsXsXsXsXsXsXsXsXsXsXsXsXsXsXsXsXsXsXsXsXsXV.& o o o o o  .5XsXsXsXsXsXsXsXsXsX                          ",
"                            sXsXsXsXsXsXsXsXsX<X] o o o o 6 |.sXsXsXsXsXsXsXsXsXsXsXsXsXsXsXsXsXsXsXsXsXsXsXsXsXsXsXsXsXsXsX3.o o 3.sXsXsXsXsXsXsXsXsXsXsXsXsXsXsXsXsXsXsXsXsXsXsXsXsXsXsXsXsXsXsX|.6 o o o o ] <XsXsXsXsXsXsXsXsXsX                            ",
"                            sXsXsXsXsXsXsXsXsXsX<X .# o o 1 J.sXsXsXsXsXsXsXsXsXsXsXsXsXsXsXsXsXsXsXsXsXsXsXsXsXsXsXsXsXsXsX3.o o 3.sXsXsXsXsXsXsXsXsXsXsXsXsXsXsXsXsXsXsXsXsXsXsXsXsXsXsXsXsXsXsXJ.1 o o #  .<XsXsXsXsXsXsXsXsXsXsX                            ",
"                              sXsXsXsXsXsXsXsXsXsX5X;.& o o v H.sXsXsXsXsXsXsXsXsXsXsXsXsXsXsXsXsXsXsXsXsXsXsXsXsXsXsXsXsXsX3.o o 7.sXsXsXsXsXsXsXsXsXsXsXsXsXsXsXsXsXsXsXsXsXsXsXsXsXsXsXsXsXsXJ.n o o & ;.5XsXsXsXsXsXsXsXsXsXsX                              ",
"                                sXsXsXsXsXsXsXsXsXsX9Xq.1 o o e u.9XsXsXsXsXsXsXsXsXsXsXsXsXsXsXsXsXsXsXsXsXsXsXsXsXsXsXsXsX7.o o 3.sXsXsXsXsXsXsXsXsXsXsXsXsXsXsXsXsXsXsXsXsXsXsXsXsXsXsXsX9Xs.e o o 1 0.9XsXsXsXsXsXsXsXsXsXsX                                ",
"                                  sXsXsXsXsXsXsXsXsXsXyXM.i o o & _ |.sXsXsXsXsXsXsXsXsXsXsXsXsXsXsXsXsXsXsXsXsXsXsXsXsXsXsX3.o o 3.sXsXsXsXsXsXsXsXsXsXsXsXsXsXsXsXsXsXsXsXsXsXsXsXsXsXsX|.] & o o i M.yXsXsXsXsXsXsXsXsXsXsX                                  ",
"                                    sXsXsXsXsXsXsXsXsXsXsXR.S o o o f b.9XsXsXsXsXsXsXsXsXsXsXsXsXsXsXsXsXsXsXsXsXsXsXsXsXsX3.o o 3.sXsXsXsXsXsXsXsXsXsXsXsXsXsXsXsXsXsXsXsXsXsXsXsXsX9Xb.h o o o S I.sXsXsXsXsXsXsXsXsXsXsX                                    ",
"                                      sXsXsXsXsXsXsXsXsXsXsX&X&.> o o & / R.yXsXsXsXsXsXsXsXsXsXsXsXsXsXsXsXsXsXsXsXsXsXsXsX7.o o 3.sXsXsXsXsXsXsXsXsXsXsXsXsXsXsXsXsXsXsXsXsXsXsXyXR.) & o o > +.&XsXsXsXsXsXsXsXsXsXsXsX                                      ",
"                                        sXsXsXsXsXsXsXsXsXsXsXeXV.v o o o 7 ;.|.sXsXsXsXsXsXsXsXsXsXsXsXsXsXsXsXsXsXsXsXsXsX3.o o 7.sXsXsXsXsXsXsXsXsXsXsXsXsXsXsXsXsXsXsXsXsXsX|.;.e o o o v V.eXsXsXsXsXsXsXsXsXsXsXsX                                        ",
"                                          sXsXsXsXsXsXsXsXsXsXsXsXOX&.6 o o o a 3.[.yXsXsXsXsXsXsXsXsXsXsXsXsXsXsXsXsXsXsXsX3.o o 3.sXsXsXsXsXsXsXsXsXsXsXsXsXsXsXsXsXsXsXyX|.3.a o o o 6 +.#XsXsXsXsXsXsXsXsXsXsXsXsX                                          ",
"                                            sXsXsXsXsXsXsXsXsXsXsXsXyXH.Y & o o o i &.I.eXsXsXsXsXsXsXsXsXsXsXsXsXsXsXsXsXsX3.o o 3.sXsXsXsXsXsXsXsXsXsXsXsXsXsXsXsXsXeXR.&.i o o o & Y H.yXsXsXsXsXsXsXsXsXsXsXsXsX                                            ",
"                                              sXsXsXsXsXsXsXsXsXsXsXsXsX9Xb.Z & o o o 6 ! k.#XyXsXsXsXsXsXsXsXsXsXsXsXsXsXsX3.o o 7.sXsXsXsXsXsXsXsXsXsXsXsXsXsXyX#Xk.! 6 o o o & S b.5XsXsXsXsXsXsXsXsXsXsXsXsXsX                                              ",
"                                                  sXsXsXsXsXsXsXsXsXsXsXsXsX<Xk.S & o o o # a ] b.OX9XsXsXsXsXsXsXsXsXsXsXsX3.o o 3.sXsXsXsXsXsXsXsXsXsXsX9XOXb.] a # o o o & S k.<XsXsXsXsXsXsXsXsXsXsXsXsXsX                                                  ",
"                                                    sXsXsXsXsXsXsXsXsXsXsXsXsXsX5XZ.) 7 o o o o # e Y 3.Z.|.5XeXsXsXsXsXsXsX3.o o 3.sXsXsXsXsXsXeX<X|.Z.3.Y e # o o o o 7 ) Z.5XsXsXsXsXsXsXsXsXsXsXsXsXsXsX                                                    ",
"                                                      sXsXsXsXsXsXsXsXsXsXsXsXsXsXsXeX_.7.Z 1 o o o o o & 7 n ) ;.u.M.H.^.OX+.o o +.OX^.H.M.u.;./ n 7 & o o o o o 1 Z 7._.eXsXsXsXsXsXsXsXsXsXsXsXsXsXsXsX                                                      ",
"                                                          sXsXsXsXsXsXsXsXsXsXsXsXsXsXsXsX5XJ.7.H 7 # o o o o o o o & > 1 6 > o o > 6 1 > & o o o o o o o # 7 H 7.J.5XsXsXsXsXsXsXsXsXsXsXsXsXsXsXsXsX                                                          ",
"                                                            sXsXsXsXsXsXsXsXsXsXsXsXsXsXsXsXsXsX9X[.M.&.H i 1 # o o o o o o o o o o o o o o o o # 1 i H &.k._.9XsXsXsXsXsXsXsXsXsXsXsXsXsXsXsXsXsXsX                                                            ",
"                                                                sXsXsXsXsXsXsXsXsXsXsXsXsXsXsXsXsXsXsXsX9X#XI.b.7. .! S n f 1 o o 1 f n S /  .7.b.I.#X9XsXsXsXsXsXsXsXsXsXsXsXsXsXsXsXsXsXsXsXsX                                                                ",
"                                                                    sXsXsXsXsXsXsXsXsXsXsXsXsXsXsXsXsXsXsXsXsXsXsXsXeX9X<X5X&.o o &.<X<X9XeXsXsXsXsXsXsXsXsXsXsXsXsXsXsXsXsXsXsXsXsXsXsXsXsX                                                                    ",
"                                                                        sXsXsXsXsXsXsXsXsXsXsXsXsXsXsXsXsXsXsXsXsXsXsXsXsXsX7.o o 3.sXsXsXsXsXsXsXsXsXsXsXsXsXsXsXsXsXsXsXsXsXsXsXsXsXsX                                                                        ",
"                                                                            sXsXsXsXsXsXsXsXsXsXsXsXsXsXsXsXsXsXsXsXsXsXsXsX3.o o 3.sXsXsXsXsXsXsXsXsXsXsXsXsXsXsXsXsXsXsXsXsXsXsXsX                                                                            ",
"                                                                                sXsXsXsXsXsXsXsXsXsXsXsXsXsXsXsXsXsXsXsXsXsX3.o o 3.sXsXsXsXsXsXsXsXsXsXsXsXsXsXsXsXsXsXsXsXsXsX                                                                                ",
"                                                                                      sXsXsXsXsXsXsXsXsXsXsXsXsXsXsXsXsXsXsX3.o o 3.sXsXsXsXsXsXsXsXsXsXsXsXsXsXsXsXsXsXsX                                                                                      ",
"                                                                                            sXsXsXsXsXsXsXsXsXsXsXsXsXsXsXsX3.o o 7.sXsXsXsXsXsXsXsXsXsXsXsXsXsXsXsX                                                                                            ",
"                                                                                                    sXsXsXsXsXsXsXsXsXsXsXsX3.o o 3.sXsXsXsXsXsXsXsXsXsXsXsX                                                                                                    ",
"                                                                                                                sXsXsXsXsXsX3.o o 3.sXsXsXsXsXsX                                                                                                                "
};
